X: 1
T:Constant Billy - Oddington
M:6/8
L:1/8
R: Rag Morris
Z: Mackin and "The Rag Tune Book"
W: Morris formula:  1/2A.(AB)6
K:G
P: A
D | G2 d BGB | c2 A FED | BAG EFG| A2 G FED |
G2 d BGB | c2 A FED |  BAG E2 E | DEF G3 ||
P:B
Bcd e3 | ABc d3 | Bcd e3 | ABc def |
g2 d BGB | c2 A FED |  BAG E2 E | DEF G3 ||
r:16
